!!!SOCIAL_FUNCTION:	dance songs
!!!PDT:	1932
!!!OTL: No_117_Dancing_Song_(c).krn
!!!REG: Southwest
!!!LANG: Non-Tone
!!!LING_GROUP: Yuman-Cochimi
**kern	**kern
*staff2	*staff1
=1-	=1-
*clefF4	*clefF4
*k[b-e-a-d-]	*k[b-e-a-d-]
*M2/4	*M2/4
8GG/	8.A-\L
16r	.
16GG/	16A-\Jk
8GG/	8.B-\L
16r	.
16GG/	16B-\Jk
=2	=2
8GG/	8.B-\L
16r	.
16GG/	16A-\Jk
8GG/	8.A-\L
16r	.
16GG/	16B-\Jk
=3	=3
8GG/	12B-\L
.	12A-\
16r	.
.	12A-\J
16GG/	.
8GG/	4A-\
16r	.
16GG/	.
=4	=4
8GG/	8.F\L
16r	.
16GG/	16A-\Jk
8GG/	8.A-\L
16r	.
16GG/	16A-\Jk
=5	=5
8GG/	8.A-\L
16r	.
16GG/	16A-\Jk
8GG/	8.A-\L
16r	.
16GG/	16A-\Jk
=6	=6
8GG/	8.A-\L
16r	.
16GG/	16A-\Jk
8GG/	8A-\
8r	8r
=7!|:	=7!|:
8GG/	8.F\L
16r	.
16GG/	16B-\Jk
8GG/	8.B-\L
16r	.
16GG/	16B-\Jk
=8	=8
8GG/	12B-\L
.	12A-\
16r	.
.	12A-\J
16GG/	.
8GG/	8A-\
8r	16r
.	16F\
=9	=9
8GG/	12B-\L
.	12A-\
16r	.
.	12A-\J
16GG/	.
8GG/	4A-\
16r	.
16GG/	.
=10	=10
8GG/	8.F\L
16r	.
16GG/	16A-\Jk
8GG/	8.A-\L
16r	.
16GG/	16A-\Jk
=11	=11
8GG/	8.A-\L
16r	.
16GG/	16A-\Jk
8GG/	8.A-\L
16r	.
16GG/	16A-\Jk
=12	=12
8GG/	12A-\L
.	12A-\
16r	.
.	12A-\J
16GG/	.
8GG/	8A-\
8r	8r
=13	=13
8GG/	8.F\L
16r	.
16GG/	16B-\Jk
8GG/	8.B-\L
16r	.
16GG/	16B-\Jk
=14	=14
8GG/	8.B-\L
16r	.
16GG/	16A-\Jk
8GG/	8A-\
8r	16r
.	16F\
=15	=15
8GG/	12B-\L
.	12A-\
16r	.
.	12A-\J
16GG/	.
8GG/	4A-\
16r	.
16GG/	.
=16	=16
8GG/	8.F\L
16r	.
16GG/	16A-\Jk
8GG/	8.A-\L
16r	.
16GG/	16A-\Jk
=17	=17
8GG/	8.A-\L
16r	.
16GG/	16A-\Jk
8GG/	8.A-\L
16r	.
16GG/	16A-\Jk
=18	=18
8GG/	12A-\L
.	12A-\
16r	.
.	12A-\J
16GG/	.
8GG/	8A-\
8r	8r
=19:|!	=19:|!
2r	2r
=20	=20
2r	8.A-\L
.	16A-\Jk
.	8.B-\L
.	16B-\Jk
=21	=21
2r	12B-\L
.	12A-\
.	12B-\J
.	8B-\
.	16r
.	16A-\
=22	=22
8GG/	8.B-\L
16r	.
16GG/	16B-\Jk
8GG/	4B-\
16r	.
16GG/	.
=23	=23
8GG/	8.A-\L
16r	.
16GG/	[16B-\Jk
8GG/	8.B-\L]
16r	.
16GG/	16B-\Jk
=24	=24
8GG/	8.B-\L
16r	.
16GG/	16A-\Jk
8GG/	8A-\
8r	16r
.	16F\
=25	=25
8GG/	12B-\L
.	12A-\
16r	.
.	12A-\J
16GG/	.
8GG/	4A-\
16r	.
16GG/	.
=26	=26
8GG/	8.F\L
16r	.
16GG/	16A-\Jk
8GG/	8.A-\L
16r	.
16GG/	16A-\Jk
=27	=27
8GG/	8.A-\L
16r	.
16GG/	16A-\Jk
8GG/	8.A-\L
16r	.
16GG/	16A-\Jk
=28	=28
8GG/	8.A-\L
16r	.
16GG/	16A-\Jk
8GG/	4A-\
8r	.
=29	=29
8GG/	8.F\L
16r	.
16GG/	16B-\Jk
8GG/	8.B-\L
16r	.
16GG/	16B-\Jk
=30	=30
8GG/	12B-\L
.	12A-\
16r	.
.	12A-\J
16GG/	.
8GG/	8A-\
8r	16r
.	16F\
=31	=31
8GG/	12B-\L
.	12A-\
16r	.
.	12A-\J
16GG/	.
8GG/	4A-\
16r	.
16GG/	.
=32	=32
8GG/	8.F\L
16r	.
16GG/	16A-\Jk
8GG/	8.A-\L
16r	.
16GG/	16A-\Jk
=33	=33
!!pagebreak:default
8GG/	8.A-\L
16r	.
16GG/	16A-\Jk
8GG/	8.A-\L
16r	.
16GG/	16A-\Jk
=34	=34
8GG/	12A-\L
.	12A-\
16r	.
.	12A-\J
16GG/	.
8GG/	8A-\
8r	8r
=35	=35
8GG/	8.F\L
16r	.
16GG/	16B-\Jk
8GG/	8.B-\L
16r	.
16GG/	16B-\Jk
=36	=36
8GG/	8.B-\L
16r	.
16GG/	16A-\Jk
8GG/	8A-\
8r	16r
.	16F\
=37	=37
8GG/	12B-\L
.	12A-\
16r	.
.	12A-\J
16GG/	.
8GG/	4A-\
8r	.
=38	=38
8GG/	8.F\L
16r	.
16GG/	16A-\Jk
8GG/	8.A-\L
16r	.
16GG/	16A-\Jk
=39	=39
8GG/	8.A-\L
16r	.
16GG/	16A-\Jk
8GG/	8.A-\L
16r	.
16GG/	16A-\Jk
=40	=40
8GG/	12A-\L
.	12A-\
16r	.
.	12A-\J
16GG/	.
8GG/	8A-\
8r	8r
==	==
*-	*-
